is/KeyboardSettings.svg

<svg xmlns="http://www.w3.org/2000/svg" xmlns:xlink="http://www.w3.org/1999/xlink" xmlns:sodipodi="http://sodipodi.sourceforge.net/DTD/sodipodi-0.dtd" xmlns:inkscape="http://www.inkscape.org/namespaces/inkscape" viewBox="0 0 192 192" version="1.1" inkscape:version="0.91 r13725" sodipodi:docname="preferences-desktop-keyboard.svg" height="1em" width="1em">
  <sodipodi:namedview pagecolor="#ffffff" bordercolor="#666666" borderopacity="1.0" inkscape:pageopacity="0.0" inkscape:pageshadow="2" inkscape:zoom="3.959798" inkscape:cx="69.408679" inkscape:cy="79.875028" inkscape:document-units="px" inkscape:current-layer="layer1" showgrid="true" units="px" inkscape:showpageshadow="false" borderlayer="true" inkscape:window-width="1920" inkscape:window-height="1023" inkscape:window-x="0" inkscape:window-y="27" inkscape:window-maximized="1" showguides="true" inkscape:guide-bbox="true" inkscape:snap-center="true" inkscape:snap-grids="true" inkscape:object-nodes="true" inkscape:snap-bbox="true" inkscape:bbox-nodes="true" inkscape:bbox-paths="true">
    <inkscape:grid empspacing="4" type="xygrid"/>
    <sodipodi:guide orientation="1,0" position="96,96"/>
    <sodipodi:guide orientation="0,1" position="96,96"/>
    <sodipodi:guide orientation="1,0" position="68,96"/>
    <sodipodi:guide orientation="1,0" position="124,96"/>
    <sodipodi:guide orientation="0,1" position="96,124"/>
    <sodipodi:guide orientation="0,1" position="96,68"/>
  </sodipodi:namedview>
  <defs>
    <linearGradient inkscape:collect="always" id="b">
      <stop style="stop-color:#212121;stop-opacity:0.2" offset="0"/>
      <stop style="stop-color:#212121;stop-opacity:0" offset="1"/>
    </linearGradient>
    <linearGradient inkscape:collect="always" id="a">
      <stop style="stop-color:#ffffff;stop-opacity:0.1" offset="0"/>
      <stop style="stop-color:#ffffff;stop-opacity:0" offset="1"/>
    </linearGradient>
    <radialGradient inkscape:collect="always" xlink:href="#a" id="f" cx="20" cy="880.36218" fx="20" fy="880.36218" r="76" gradientUnits="userSpaceOnUse" gradientTransform="matrix(2.0000002,2.0000002,-2.0000002,2.0000002,1740.7245,-920.36237)"/>
    <linearGradient inkscape:collect="always" xlink:href="#b" id="d" x1="51.599548" y1="59.599487" x2="164" y2="172" gradientUnits="userSpaceOnUse"/>
    <filter style="color-interpolation-filters:sRGB" inkscape:label="Drop Shadow" id="e" x="-0.5" y="-0.5" width="2" height="2">
      <feFlood flood-opacity="0.2" flood-color="rgb(33,33,33)" result="flood"/>
      <feComposite in="flood" in2="SourceGraphic" operator="in" result="composite1"/>
      <feGaussianBlur in="composite1" stdDeviation="4" result="blur"/>
      <feOffset dx="4" dy="4" result="offset"/>
      <feComposite in="SourceGraphic" in2="offset" operator="over" result="composite2"/>
    </filter>
    <filter style="color-interpolation-filters:sRGB" inkscape:label="Drop Shadow" id="c">
      <feFlood flood-opacity="0.12" flood-color="rgb(0,0,0)" result="flood"/>
      <feComposite in="flood" in2="SourceGraphic" operator="in" result="composite1"/>
      <feGaussianBlur in="composite1" stdDeviation="2" result="blur"/>
      <feOffset dx="0" dy="0" result="offset"/>
      <feComposite in="SourceGraphic" in2="offset" operator="over" result="fbSourceGraphic"/>
      <feColorMatrix result="fbSourceGraphicAlpha" in="fbSourceGraphic" values="0 0 0 -1 0 0 0 0 -1 0 0 0 0 -1 0 0 0 0 1 0"/>
      <feFlood flood-opacity="0.23999999999999999" flood-color="rgb(0,0,0)" result="flood" in="fbSourceGraphic"/>
      <feComposite in2="fbSourceGraphic" in="flood" operator="in" result="composite1"/>
      <feGaussianBlur in="composite1" stdDeviation="2" result="blur"/>
      <feOffset dx="0" dy="4" result="offset"/>
      <feComposite in2="offset" in="fbSourceGraphic" operator="over" result="composite2"/>
    </filter>
  </defs>
  <g transform="translate(0,-860.36216)" inkscape:groupmode="layer" inkscape:label="Main">
    <rect ry="12" rx="12" y="880.36218" x="20" height="152" width="152" style="color:#000000;clip-rule:nonzero;display:inline;overflow:visible;visibility:visible;opacity:1;isolation:auto;mix-blend-mode:normal;color-interpolation:sRGB;color-interpolation-filters:linearRGB;solid-color:#000000;solid-opacity:1;fill:#757575;fill-opacity:1;fill-rule:evenodd;stroke:none;stroke-width:1;stroke-linecap:butt;stroke-linejoin:round;stroke-miterlimit:4;stroke-dasharray:none;stroke-dashoffset:0;stroke-opacity:1;color-rendering:auto;image-rendering:auto;shape-rendering:auto;text-rendering:auto;enable-background:accumulate;filter:url(#c)"/>
    <path style="opacity:1;fill:url(#d);fill-opacity:1" d="M 54.400391 59.599609 C 48.680391 59.599609 44.052734 64.28 44.052734 70 L 44 122 C 44 125.18583 45.453864 128.04729 47.728516 129.95898 C 48.119555 130.42427 48.550343 130.85505 49.015625 131.24609 C 49.406665 131.71138 49.837452 132.14216 50.302734 132.5332 C 50.693774 132.99848 51.124562 133.42927 51.589844 133.82031 C 51.980883 134.28559 52.411671 134.71638 52.876953 135.10742 C 53.267993 135.5727 53.698781 136.00349 54.164062 136.39453 C 54.555102 136.85981 54.98589 137.2906 55.451172 137.68164 C 55.842211 138.14692 56.272999 138.57771 56.738281 138.96875 C 57.129321 139.43403 57.560109 139.86482 58.025391 140.25586 C 58.41643 140.72114 58.847218 141.15193 59.3125 141.54297 C 59.70354 142.00825 60.134328 142.43904 60.599609 142.83008 C 60.990649 143.29536 61.421437 143.72615 61.886719 144.11719 C 62.277758 144.58247 62.708547 145.01326 63.173828 145.4043 C 63.564868 145.86957 63.995655 146.30037 64.460938 146.69141 C 64.851977 147.15669 65.282766 147.58748 65.748047 147.97852 C 66.139087 148.44379 66.569875 148.87459 67.035156 149.26562 C 67.426196 149.7309 67.856984 150.1617 68.322266 150.55273 C 68.713305 151.01802 69.144094 151.4488 69.609375 151.83984 C 70.000415 152.30512 70.431203 152.73592 70.896484 153.12695 C 71.287524 153.59223 71.718313 154.02303 72.183594 154.41406 C 72.574633 154.87934 73.005422 155.31014 73.470703 155.70117 C 73.861743 156.16645 74.292532 156.59724 74.757812 156.98828 C 75.148853 157.45356 75.579641 157.88436 76.044922 158.27539 C 76.435961 158.74067 76.86675 159.17147 77.332031 159.5625 C 77.723071 160.02778 78.15386 160.45857 78.619141 160.84961 C 79.01018 161.31489 79.440969 161.74568 79.90625 162.13672 C 80.29729 162.60199 80.728079 163.0328 81.193359 163.42383 C 81.584399 163.8891 82.015188 164.31991 82.480469 164.71094 C 82.871508 165.17621 83.302298 165.60701 83.767578 165.99805 C 84.158618 166.46332 84.589406 166.89412 85.054688 167.28516 C 85.445727 167.75043 85.876516 168.18123 86.341797 168.57227 C 86.733147 169.03791 87.165155 169.46809 87.630859 169.85938 C 88.021978 170.32463 88.452607 170.75548 88.917969 171.14648 C 89.1714 171.44796 89.447113 171.7289 89.732422 172 L 160 172 C 166.648 172 172 166.648 172 160 L 172 89.716797 C 171.77667 89.491783 171.54365 89.276425 171.30078 89.072266 C 170.90977 88.606906 170.47894 88.176271 170.01367 87.785156 C 169.62266 87.319797 169.19183 86.889162 168.72656 86.498047 C 168.33555 86.032687 167.90472 85.602052 167.43945 85.210938 C 167.04844 84.745576 166.61761 84.314944 166.15234 83.923828 C 165.76133 83.458468 165.3305 83.027834 164.86523 82.636719 C 164.47395 82.171016 164.04378 81.739003 163.57812 81.347656 C 163.18709 80.882378 162.7563 80.451583 162.29102 80.060547 C 161.89998 79.595268 161.46919 79.164474 161.00391 78.773438 C 160.61287 78.308158 160.18208 77.877365 159.7168 77.486328 C 159.32576 77.021049 158.89497 76.590256 158.42969 76.199219 C 158.03865 75.733939 157.60786 75.303147 157.14258 74.912109 C 156.75154 74.446829 156.32075 74.016038 155.85547 73.625 C 155.46443 73.15972 155.03364 72.728929 154.56836 72.337891 C 154.17732 71.87261 153.74653 71.44182 153.28125 71.050781 C 152.89021 70.5855 152.45942 70.15471 151.99414 69.763672 C 151.6031 69.298391 151.17231 68.867602 150.70703 68.476562 C 150.31599 68.011281 149.8852 67.580492 149.41992 67.189453 C 149.02888 66.724172 148.59809 66.293383 148.13281 65.902344 C 147.74177 65.437062 147.31099 65.006273 146.8457 64.615234 C 146.45466 64.149953 146.02388 63.719164 145.55859 63.328125 C 143.6469 61.053473 140.78544 59.599609 137.59961 59.599609 L 54.400391 59.599609 z" transform="translate(0,860.36216)"/>
    <path inkscape:connector-curvature="0" d="m 32,880.36216 c -6.648,0 -12,5.352 -12,12 l 0,1 c 0,-6.648 5.352,-12 12,-12 l 128,0 c 6.648,0 12,5.352 12,12 l 0,-1 c 0,-6.648 -5.352,-12 -12,-12 l -128,0 z" style="color:#000000;clip-rule:nonzero;display:inline;overflow:visible;visibility:visible;opacity:0.2;isolation:auto;mix-blend-mode:normal;color-interpolation:sRGB;color-interpolation-filters:linearRGB;solid-color:#000000;solid-opacity:1;fill:#ffffff;fill-opacity:1;fill-rule:evenodd;stroke:none;stroke-width:1;stroke-linecap:butt;stroke-linejoin:round;stroke-miterlimit:4;stroke-dasharray:none;stroke-dashoffset:0;stroke-opacity:1;color-rendering:auto;image-rendering:auto;shape-rendering:auto;text-rendering:auto;enable-background:accumulate"/>
    <path d="m 20,1019.3622 0,1 c 0,6.648 5.352,12 12,12 l 128,0 c 6.648,0 12,-5.352 12,-12 l 0,-1 c 0,6.648 -5.352,12 -12,12 l -128,0 c -6.648,0 -12,-5.352 -12,-12 z" style="color:#000000;clip-rule:nonzero;display:inline;overflow:visible;visibility:visible;opacity:0.2;isolation:auto;mix-blend-mode:normal;color-interpolation:sRGB;color-interpolation-filters:linearRGB;solid-color:#000000;solid-opacity:1;fill:#212121;fill-opacity:1;fill-rule:evenodd;stroke:none;stroke-width:1;stroke-linecap:butt;stroke-linejoin:round;stroke-miterlimit:4;stroke-dasharray:none;stroke-dashoffset:0;stroke-opacity:1;color-rendering:auto;image-rendering:auto;shape-rendering:auto;text-rendering:auto;enable-background:accumulate" inkscape:connector-curvature="0"/>
    <path d="m 137.6,919.96216 -83.2,0 c -5.72,0 -10.348,4.68 -10.348,10.4 l -0.052,52 c 0,5.72 4.68,10.4 10.4,10.4 l 83.2,0 c 5.72,0 10.4,-4.68 10.4,-10.4 l 0,-52 c 0,-5.72 -4.68,-10.4 -10.4,-10.4 z m -46.8,15.6 10.4,0 0,10.4 -10.4,0 0,-10.4 z m 0,15.6 10.4,0 0,10.4 -10.4,0 0,-10.4 z m -15.6,-15.6 10.4,0 0,10.4 -10.4,0 0,-10.4 z m 0,15.6 10.4,0 0,10.4 -10.4,0 0,-10.4 z m -5.2,10.4 -10.4,0 0,-10.4 10.4,0 0,10.4 z m 0,-15.6 -10.4,0 0,-10.4 10.4,0 0,10.4 z m 46.8,36.4 -41.6,0 0,-10.4 41.6,0 0,10.4 z m 0,-20.8 -10.4,0 0,-10.4 10.4,0 0,10.4 z m 0,-15.6 -10.4,0 0,-10.4 10.4,0 0,10.4 z m 15.6,15.6 -10.4,0 0,-10.4 10.4,0 0,10.4 z m 0,-15.6 -10.4,0 0,-10.4 10.4,0 0,10.4 z" inkscape:connector-curvature="0" style="fill:#fafafa;filter:url(#e)"/>
    <path inkscape:connector-curvature="0" d="m 54.400391,919.96177 c -5.72,0 -10.347657,4.68039 -10.347657,10.40039 l -0.05273,52 c 0,0.007 0.0019,0.0129 0.002,0.0195 l 0.05078,-51.01953 c 0,-5.72 4.627657,-10.40039 10.347657,-10.40039 l 83.199219,0 c 5.72,0 10.40039,4.68039 10.40039,10.40039 l 0,-1 c 0,-5.72 -4.68039,-10.40039 -10.40039,-10.40039 l -83.199219,0 z m 5.199218,26 0,1 10.400391,0 0,-1 -10.400391,0 z m 15.59961,0 0,1 10.40039,0 0,-1 -10.40039,0 z m 15.601562,0 0,1 10.398439,0 0,-1 -10.398439,0 z m 15.599609,0 0,1 10.40039,0 0,-1 -10.40039,0 z m 15.59961,0 0,1 10.40039,0 0,-1 -10.40039,0 z m -62.400391,15.59961 0,1 10.400391,0 0,-1 -10.400391,0 z m 15.59961,0 0,1 10.40039,0 0,-1 -10.40039,0 z m 15.601562,0 0,1 10.398439,0 0,-1 -10.398439,0 z m 15.599609,0 0,1 10.40039,0 0,-1 -10.40039,0 z m 15.59961,0 0,1 10.40039,0 0,-1 -10.40039,0 z m -46.800781,20.80078 0,1 41.601561,0 0,-1 -41.601561,0 z" style="fill:#ffffff"/>
    <path transform="translate(0,860.36216)" d="M 59.599609 75.199219 L 59.599609 76.199219 L 70 76.199219 L 70 75.199219 L 59.599609 75.199219 z M 75.199219 75.199219 L 75.199219 76.199219 L 85.599609 76.199219 L 85.599609 75.199219 L 75.199219 75.199219 z M 90.800781 75.199219 L 90.800781 76.199219 L 101.19922 76.199219 L 101.19922 75.199219 L 90.800781 75.199219 z M 106.40039 75.199219 L 106.40039 76.199219 L 116.80078 76.199219 L 116.80078 75.199219 L 106.40039 75.199219 z M 122 75.199219 L 122 76.199219 L 132.40039 76.199219 L 132.40039 75.199219 L 122 75.199219 z M 59.599609 90.800781 L 59.599609 91.800781 L 70 91.800781 L 70 90.800781 L 59.599609 90.800781 z M 75.199219 90.800781 L 75.199219 91.800781 L 85.599609 91.800781 L 85.599609 90.800781 L 75.199219 90.800781 z M 90.800781 90.800781 L 90.800781 91.800781 L 101.19922 91.800781 L 101.19922 90.800781 L 90.800781 90.800781 z M 106.40039 90.800781 L 106.40039 91.800781 L 116.80078 91.800781 L 116.80078 90.800781 L 106.40039 90.800781 z M 122 90.800781 L 122 91.800781 L 132.40039 91.800781 L 132.40039 90.800781 L 122 90.800781 z M 75.199219 111.59961 L 75.199219 112.59961 L 116.80078 112.59961 L 116.80078 111.59961 L 75.199219 111.59961 z M 148 122 C 148 127.72 143.31961 132.40039 137.59961 132.40039 L 54.400391 132.40039 C 48.687003 132.40039 44.012756 127.73051 44.001953 122.01953 L 44 123 C 44 128.72 48.680391 133.40039 54.400391 133.40039 L 137.59961 133.40039 C 143.31961 133.40039 148 128.72 148 123 L 148 122 z" style="fill:#212121;opacity:0.2"/>
  </g>
  <g sodipodi:insensitive="true" inkscape:label="Finish" inkscape:groupmode="layer">
    <rect transform="translate(0,-860.36216)" ry="12" rx="12" y="880.36218" x="20" height="152" width="152" style="color:#000000;clip-rule:nonzero;display:inline;overflow:visible;visibility:visible;opacity:1;isolation:auto;mix-blend-mode:normal;color-interpolation:sRGB;color-interpolation-filters:linearRGB;solid-color:#000000;solid-opacity:1;fill:url(#f);fill-opacity:1;fill-rule:evenodd;stroke:none;stroke-width:1;stroke-linecap:butt;stroke-linejoin:round;stroke-miterlimit:4;stroke-dasharray:none;stroke-dashoffset:0;stroke-opacity:1;color-rendering:auto;image-rendering:auto;shape-rendering:auto;text-rendering:auto;enable-background:accumulate"/>
  </g>
</svg>

<svg xmlns="http://www.w3.org/2000/svg" xmlns:xlink="http://www.w3.org/1999/xlink" viewBox="0 0 192 192" height="1em" width="1em">
  <defs>
    <linearGradient id="a">
      <stop style="stop-color:#212121;stop-opacity:.2" offset="0"/>
      <stop style="stop-color:#212121;stop-opacity:0" offset="1"/>
    </linearGradient>
    <linearGradient id="b">
      <stop style="stop-color:#fff;stop-opacity:.1" offset="0"/>
      <stop style="stop-color:#fff;stop-opacity:0" offset="1"/>
    </linearGradient>
    <linearGradient xlink:href="#a" id="d" x1="51.6" y1="59.599" x2="164" y2="172" gradientUnits="userSpaceOnUse"/>
    <filter style="color-interpolation-filters:sRGB" id="e" x="-.5" y="-.5" width="2" height="2">
      <feFlood flood-opacity=".2" flood-color="#212121" result="flood"/>
      <feComposite in="flood" in2="SourceGraphic" operator="in" result="composite1"/>
      <feGaussianBlur in="composite1" stdDeviation="4" result="blur"/>
      <feOffset dx="4" dy="4" result="offset"/>
      <feComposite in="SourceGraphic" in2="offset" result="composite2"/>
    </filter>
    <filter style="color-interpolation-filters:sRGB" id="c">
      <feFlood flood-opacity=".12" flood-color="#000" result="flood"/>
      <feComposite in="flood" in2="SourceGraphic" operator="in" result="composite1"/>
      <feGaussianBlur in="composite1" stdDeviation="2" result="blur"/>
      <feOffset result="offset"/>
      <feComposite in="SourceGraphic" in2="offset" result="fbSourceGraphic"/>
      <feColorMatrix result="fbSourceGraphicAlpha" in="fbSourceGraphic" values="0 0 0 -1 0 0 0 0 -1 0 0 0 0 -1 0 0 0 0 1 0"/>
      <feFlood flood-opacity=".24" flood-color="#000" result="flood"/>
      <feComposite in2="fbSourceGraphic" in="flood" operator="in" result="composite1"/>
      <feGaussianBlur in="composite1" stdDeviation="2" result="blur"/>
      <feOffset dy="4" result="offset"/>
      <feComposite in2="offset" in="fbSourceGraphic" result="composite2"/>
    </filter>
    <radialGradient xlink:href="#b" id="f" cx="20" cy="880.362" fx="20" fy="880.362" r="76" gradientUnits="userSpaceOnUse" gradientTransform="matrix(2 2 -2 2 1740.725 -920.362)"/>
  </defs>
  <g transform="translate(0 -860.362)">
    <rect ry="12" rx="12" y="880.362" x="20" height="152" width="152" style="color:#000;clip-rule:nonzero;display:inline;overflow:visible;visibility:visible;opacity:1;isolation:auto;mix-blend-mode:normal;color-interpolation:sRGB;color-interpolation-filters:linearRGB;solid-color:#000;solid-opacity:1;fill:#757575;fill-opacity:1;fill-rule:evenodd;stroke:none;stroke-width:1;stroke-linecap:butt;stroke-linejoin:round;stroke-miterlimit:4;stroke-dasharray:none;stroke-dashoffset:0;stroke-opacity:1;color-rendering:auto;image-rendering:auto;shape-rendering:auto;text-rendering:auto;enable-background:accumulate;filter:url(#c)"/>
    <path style="opacity:1;fill:url(#d);fill-opacity:1" d="M54.4 59.6c-5.72 0-10.347 4.68-10.347 10.4L44 122c0 3.186 1.454 6.047 3.729 7.959.39.465.821.896 1.287 1.287.39.465.821.896 1.287 1.287.39.465.822.896 1.287 1.287.39.466.822.896 1.287 1.287.391.466.822.896 1.287 1.288.391.465.822.896 1.287 1.287.391.465.822.896 1.287 1.287.391.465.822.896 1.287 1.287.391.465.822.896 1.288 1.287.39.465.821.896 1.287 1.287.39.465.821.896 1.287 1.287.39.465.822.896 1.287 1.287.39.466.822.896 1.287 1.287.391.466.822.896 1.287 1.288.391.465.822.896 1.287 1.287.391.465.822.896 1.287 1.287.391.465.822.896 1.287 1.287.391.465.822.896 1.287 1.287.392.465.822.896 1.288 1.287.39.465.821.896 1.287 1.287.39.465.822.896 1.287 1.287.39.466.822.896 1.287 1.287a10.5 10.5 0 0 0 1.287 1.287c.391.466.822.897 1.287 1.288.391.465.822.896 1.287 1.287.391.465.822.896 1.287 1.287.391.465.822.896 1.287 1.287.392.465.822.896 1.288 1.287.39.465.821.896 1.287 1.287.39.465.822.896 1.287 1.287.391.466.823.896 1.289 1.287a10.5 10.5 0 0 0 1.287 1.287c.253.302.53.583.814.854H160c6.648 0 12-5.352 12-12V89.717c-.223-.225-.456-.44-.7-.645a10.537 10.537 0 0 0-1.286-1.287 10.537 10.537 0 0 0-1.287-1.287 10.537 10.537 0 0 0-1.288-1.287 10.537 10.537 0 0 0-1.287-1.287 10.537 10.537 0 0 0-1.287-1.287 10.537 10.537 0 0 0-1.287-1.29 10.538 10.538 0 0 0-1.287-1.286 10.539 10.539 0 0 0-1.287-1.288 10.539 10.539 0 0 0-1.287-1.287 10.539 10.539 0 0 0-1.287-1.287 10.539 10.539 0 0 0-1.287-1.287 10.539 10.539 0 0 0-1.288-1.287 10.539 10.539 0 0 0-1.287-1.287 10.539 10.539 0 0 0-1.287-1.287 10.539 10.539 0 0 0-1.287-1.287 10.539 10.539 0 0 0-1.287-1.287 10.539 10.539 0 0 0-1.287-1.288 10.539 10.539 0 0 0-1.287-1.287 10.538 10.538 0 0 0-1.287-1.287 10.538 10.538 0 0 0-1.287-1.287c-1.912-2.275-4.774-3.728-7.96-3.728H54.4z" transform="translate(0 860.362)"/>
    <path d="M32 880.362c-6.648 0-12 5.352-12 12v1c0-6.648 5.352-12 12-12h128c6.648 0 12 5.352 12 12v-1c0-6.648-5.352-12-12-12H32z" style="color:#000;clip-rule:nonzero;display:inline;overflow:visible;visibility:visible;opacity:.2;isolation:auto;mix-blend-mode:normal;color-interpolation:sRGB;color-interpolation-filters:linearRGB;solid-color:#000;solid-opacity:1;fill:#fff;fill-opacity:1;fill-rule:evenodd;stroke:none;stroke-width:1;stroke-linecap:butt;stroke-linejoin:round;stroke-miterlimit:4;stroke-dasharray:none;stroke-dashoffset:0;stroke-opacity:1;color-rendering:auto;image-rendering:auto;shape-rendering:auto;text-rendering:auto;enable-background:accumulate"/>
    <path d="M20 1019.362v1c0 6.648 5.352 12 12 12h128c6.648 0 12-5.352 12-12v-1c0 6.648-5.352 12-12 12H32c-6.648 0-12-5.352-12-12z" style="color:#000;clip-rule:nonzero;display:inline;overflow:visible;visibility:visible;opacity:.2;isolation:auto;mix-blend-mode:normal;color-interpolation:sRGB;color-interpolation-filters:linearRGB;solid-color:#000;solid-opacity:1;fill:#212121;fill-opacity:1;fill-rule:evenodd;stroke:none;stroke-width:1;stroke-linecap:butt;stroke-linejoin:round;stroke-miterlimit:4;stroke-dasharray:none;stroke-dashoffset:0;stroke-opacity:1;color-rendering:auto;image-rendering:auto;shape-rendering:auto;text-rendering:auto;enable-background:accumulate"/>
    <path d="M137.6 919.962H54.4c-5.72 0-10.348 4.68-10.348 10.4l-.052 52c0 5.72 4.68 10.4 10.4 10.4h83.2c5.72 0 10.4-4.68 10.4-10.4v-52c0-5.72-4.68-10.4-10.4-10.4zm-46.8 15.6h10.4v10.4H90.8v-10.4zm0 15.6h10.4v10.4H90.8v-10.4zm-15.6-15.6h10.4v10.4H75.2v-10.4zm0 15.6h10.4v10.4H75.2v-10.4zm-5.2 10.4H59.6v-10.4H70v10.4zm0-15.6H59.6v-10.4H70v10.4zm46.8 36.4H75.2v-10.4h41.6v10.4zm0-20.8h-10.4v-10.4h10.4v10.4zm0-15.6h-10.4v-10.4h10.4v10.4zm15.6 15.6H122v-10.4h10.4v10.4zm0-15.6H122v-10.4h10.4v10.4z" style="fill:#fafafa;filter:url(#e)"/>
    <path d="M54.4 919.962c-5.72 0-10.347 4.68-10.347 10.4l-.053 52 .002.02.05-51.02c0-5.72 4.628-10.4 10.348-10.4h83.2c5.72 0 10.4 4.68 10.4 10.4v-1c0-5.72-4.68-10.4-10.4-10.4H54.4zm5.2 26v1H70v-1H59.6zm15.6 0v1h10.4v-1H75.2zm15.6 0v1h10.4v-1H90.8zm15.6 0v1h10.4v-1h-10.4zm15.6 0v1h10.4v-1H122zm-62.4 15.6v1H70v-1H59.6zm15.6 0v1h10.4v-1H75.2zm15.6 0v1h10.4v-1H90.8zm15.6 0v1h10.4v-1h-10.4zm15.6 0v1h10.4v-1H122zm-46.8 20.8v1h41.6v-1H75.2z" style="fill:#fff"/>
    <path transform="translate(0 860.362)" d="M59.6 75.2v1H70v-1H59.6zm15.6 0v1h10.4v-1H75.2zm15.6 0v1h10.4v-1H90.8zm15.6 0v1h10.4v-1h-10.4zm15.6 0v1h10.4v-1H122zM59.6 90.8v1H70v-1H59.6zm15.6 0v1h10.4v-1H75.2zm15.6 0v1h10.4v-1H90.8zm15.6 0v1h10.4v-1h-10.4zm15.6 0v1h10.4v-1H122zm-46.8 20.8v1h41.6v-1H75.2zM148 122c0 5.72-4.68 10.4-10.4 10.4H54.4c-5.713 0-10.387-4.67-10.398-10.38L44 123c0 5.72 4.68 10.4 10.4 10.4h83.2c5.72 0 10.4-4.68 10.4-10.4v-1z" style="fill:#212121;opacity:.2"/>
  </g>
  <rect transform="translate(0 -860.362)" ry="12" rx="12" y="880.362" x="20" height="152" width="152" style="color:#000;clip-rule:nonzero;display:inline;overflow:visible;visibility:visible;opacity:1;isolation:auto;mix-blend-mode:normal;color-interpolation:sRGB;color-interpolation-filters:linearRGB;solid-color:#000;solid-opacity:1;fill:url(#f);fill-opacity:1;fill-rule:evenodd;stroke:none;stroke-width:1;stroke-linecap:butt;stroke-linejoin:round;stroke-miterlimit:4;stroke-dasharray:none;stroke-dashoffset:0;stroke-opacity:1;color-rendering:auto;image-rendering:auto;shape-rendering:auto;text-rendering:auto;enable-background:accumulate"/>
</svg>
